!!!COM: Felix Mendelssohn
!!!CNT: Deutsch
!!!TXO: Deutsch
!!!OTL: Altdeutsches Fru2hlingslied
!!!LYR: Spee
!!!OPS: Op. 86
!!!ONM: No. 6
!!!ENC: Daniel Alt & Leigh VanHandel
!!!YOR: Sa2mmtliche Lieder fu2r eine Singstimme 
!!!YOR: Neu revidirt von Dr. L. Benda, Ausgabe fu2r mittlere Stimme
!!!YOR: Braunschweig. Henry Litolff's Verlag. Boston and New York: Arthur P. Schmidt.
!!!ODT: 1847/
**kern	**silbe
*staff1	*
=1-	=1
*clefG2	*
*k[f#c#]	*
*met(C)	*
*M4/4	*
1r	.
=2	=2
1r	.
=3	=3
1r	.
=4	=4
8r	.
{8a	{Der
8f#	tru2-
8g	-be
8a	Win-
8b	-ter
8dd	ist
8b	vor-
=5	=5
2.a	-bei
4a	die
=6	=6
4.a	Schwal-
8a	-ben
4.b	wie-
8cc#	-der-
=7	=7
4b	-keh-
4a}	-ren,}
8r	.
{8a	{nun
8f#	regt
8g	sich
=8	=8
8a	Al-
8b	-les
8dd	wie-
8b	-der
4.a	neu,
8a	die
=9	=9
8g#	Quel-
8a	|
8b	|
8cc#	-len
8dd	sich
8b	|
8g#	ver-
8a	|
=10	=10
2b	-meh-
4a}	-ren.}
4r	.
=11	=11
{4a	{Laub
8g	all-
8f#	-ge-
2g	-mach
=12	=12
8g	nun
8f#	|
8e	schleicht
8f#	an
4.g}	Tag;}
{8g	{die
=13	=13
4.b	Blu2m-
8b	-lein
4.a	nun
8a	sich
=14	=14
4dd	mel-
4b	|
2a}	-den;}
=15	=15
8r	.
{8a	wie
8a	Schla2ng-
8a	-lein
2g#	krumm,
=16	=16
4g	geh’n
8b	la2ch-
8g	-elnd
[2f#	um
=17	=17
4f#]}	|}
{4dd	{die
4cc#	Ba2ch-
4b	-lein
=18	=18
[2a	ku2hl
8a]	|
8g	|
8a	|
8b	in
=19	=19
2f#	Wa2l-
[2e	-den,
=20	=20
1e]}	|}
=21	=21
1r	.
=22	=22
8r	.
{8g	die
8f#	Ba2ch-
8g	-lein
8a	ku2hl
8b	|
8cc#	|
8dd	in
=23	=23
4.dd	Lieb-
8f#	-ste,
4f#	muss-
4f#	-te
=24	=24
2.f#	schei-
4e	|
=25	=25
2d}	-den.}
2r	.
==	==
*-	*-
